X: 1501
T: Nikrîz Longa
C: Tanburî Cemil Bey
O: Turkey
F: http://compmusic.upf.edu/node/140
N: nikriz--longa--nimsofyan----tanburi_cemil_bey
N: makam= nikriz
N: form= longa
N: usul= nimsofyan = 2/4
M: 2/4
L: 1/16
K: C _7/8B ^3/4f ^c 
Q: 1/4=96
%%MIDI tuningsystem comma53
{f}g8  | {f}g8  | g2^2/4f2 =fed2  | g2^2/4f2 =fed2  | \
w:   |   |   |   | 
g2g2 d2d2  | =fed2 dcB2  | 
w:   |   | 
d2dc de=fe  | dcB2 BAG2  | d8  | g2g4d2  | \
w:   |   |   |   | 
e2=f2 e3/2d/c2  | 
w:   | 
d4 de=f^3/4f  | g2g2 d2d2  | e2=f2 efde  | \
w:   |   |   | 
cdBc ABGd  | 
w:   | 
G2d2 G4  | {f}g8  | {f}g8  | g2^2/4f2 =fed2  | \
w:   |   |   |   | 
g2^2/4f2 =fed2  | g2g2 d2d2  | =fed2 dcB2  | 
w:   |   |   | 
d2dc de=fe  | dcB2 BAG2  | d8  | g2g4d2  | \
w:   |   |   |   | 
e2=f2 e3/2d/c2  | 
w:   | 
d4 de=f^3/4f  | g2g2 d2d2  | e2=f2 efde  | \
w:   |   |   | 
cdBc ABGd  | 
w:   | 
G2d2 G4  | _2/4BBBG AAAG  | _2/4BBBG d2d2  | \
w:   |   |   | 
=fed2 dcB2  | 
w:   | 
BAG2 d4  | _2/4BBBG AAAG  | _2/4BBBG d2d2  | \
w:   |   |   | 
=fed2 dcB2  | 
w:   | 
dcBA G4  | zgfg ag=fe  | e=fef gfed  | 
w:   |   |   | 
dcB2 BAG2  | c2d6  | zgfg ag=fe  | e=fef gfed  | 
w:   |   |   |   | 
dcB2 BAG2  | G2d2 G4  | {f}g8  | {f}g8  | g2^2/4f2 =fed2  | \
w:   |   |   |   |   | 
g2^2/4f2 =fed2  | 
w:   | 
g2g2 d2d2  | =fed2 dcB2  | d2dc de=fe  | \
w:   |   |   | 
dcB2 BAG2  | 
w:   | 
d8  | g2g4d2  | e2=f2 e3/2d/c2  | d4 de=f^3/4f  | \
w:   |   |   |   | 
g2g2 d2d2  | e2=f2 efde  | 
w:   |   | 
cdBc ABGd  | G2d2 G4  | {f}g8  | {f}g8  | g2^2/4f2 =fed2  | \
w:   |   |   |   |   | 
g2^2/4f2 =fed2  | 
w:   | 
g2g2 d2d2  | =fed2 dcB2  | d2dc de=fe  | \
w:   |   |   | 
dcB2 BAG2  | 
w:   | 
d8  | g2g4d2  | e2=f2 e3/2d/c2  | d4 de=f^3/4f  | \
w:   |   |   |   | 
g2g2 d2d2  | e2=f2 efde  | 
w:   |   | 
cdBc ABGd  | G2d2 G4  | |


